X: 128
T: Gypsy Rover
M:4/4
R:reel
L:1/8
Z:added by Alf warnock alf0@rogers.com - www.alfwarnock.info/alfs
K:D
"D"A2d2 "A7"e2fe|"D"d2AA "A7"A4| "D"A2dd "A7"e2fg|"D"f4 "A7"e3A|
"D"dddd "A7"e2fg|"D"a2"F#7"f2 "Bm"d2de|"D"f3f "G"e2dB|"D"A2d2-"G"d2B2|"D"A8|

